icon_installer/data/icons/scalable/actions/show-library-artists-symbolic.svg

<?xml version="1.0" encoding="UTF-8"?>
<svg height="16px" viewBox="0 0 16 16" width="16px" xmlns="http://www.w3.org/2000/svg">
    <g fill="#222222">
        <path d="m 5 0 c -1.089844 0 -2 0.910156 -2 2 v 9 c 0 1.089844 0.910156 2 2 2 h 9 c 1.089844 0 2 -0.910156 2 -2 v -9 c 0 -1.089844 -0.910156 -2 -2 -2 z m 4.5 2 c 1.105469 0 2 0.894531 2 2 s -0.894531 2 -2 2 s -2 -0.894531 -2 -2 s 0.894531 -2 2 -2 z m -0.5 5 h 1 c 1.660156 0 3 1.339844 3 3 v 0.332031 c 0 0.667969 -0.667969 0.667969 -0.667969 0.667969 h -5.664062 s -0.667969 0 -0.667969 -0.667969 v -0.332031 c 0 -1.660156 1.339844 -3 3 -3 z m 0 0"/>
        <path d="m 2 3 c -1.089844 0 -2 0.910156 -2 2 v 9 c 0 1.089844 0.910156 2 2 2 h 9 c 1.089844 0 2 -0.910156 2 -2 h -11 z m 0 0"/>
    </g>
</svg>

<svg xmlns="http://www.w3.org/2000/svg" width="16" height="16"><g fill="#222"><path d="M5 0C3.91 0 3 .91 3 2v9c0 1.09.91 2 2 2h9c1.09 0 2-.91 2-2V2c0-1.09-.91-2-2-2zm4.5 2a2 2 0 1 1-2 2 2 2 0 0 1 2-2zM9 7h1c1.66 0 3 1.34 3 3v.332c0 .668-.668.668-.668.668H6.668S6 11 6 10.332V10c0-1.66 1.34-3 3-3zm0 0"/><path d="M2 3C.91 3 0 3.91 0 5v9c0 1.09.91 2 2 2h9c1.09 0 2-.91 2-2H2zm0 0"/></g></svg>
